X:1
T:Sing Praise to the LORD God Almighty
T:Text: Psalm 135; vers. Psalter, 1912, alt. Tune: George C. Stebbins, 1846-1945
T:98 98 JANET www.hymnary.org/text/sing_praise_to_the_lord_god_almight
T:Sing Praise to the LORD God Almighty
T:This hymn is in the public domain. You may freely use this score for personal and congregational worship. If you reproduce the score, please credit Hymnary.org as the source. 
T:This hymn is in the public domain. You may freely use this score for personal and congregational worship. If you reproduce the score, please credit Hymnary.org as the source. 
Z:This hymn is in the public domain. You may freely use this score for personal and congregational worship. If you reproduce the score, please credit Hymnary.org as the source.
%%score ( 1 2 ) ( 3 4 )
L:1/8
M:4/4
K:Ab
V:1 treble nm="SOPRANO ALTO" snm="S. A."
V:2 treble 
V:3 bass nm="TENOR BASS" snm="T. B."
V:4 bass 
V:1
"^1""^2""^3""^4""^5" E2 | E2 =DE A2 BA | A4 G2 F2 | E2 GA | B2 cd | c6 c2 | c2 Bc d2 cG |1 %7
w: Sing|praise to the LORD God Al-|might- y, pro|claim all his|glo- ry a-|broad. O|praise him, you ser- vants ap-|
w: Give|praise to the LORD for his|good- ness; 'tis|plea- sant his|prai- ses to|sing. His|peo- ple, his cho- sen and|
w: I|know that the LORD is al-|might- y; su-|preme in do-|mi- nion is|he, per-|form- ing his will and good|
w: His|hand guides the clouds in their|cour- ses; the|light- ning flames|forth at his|will. The|wind and the rain he re-|
w: To|ran- som his peo- ple from|bond- age, great|won- ders and|signs he dis-|played. He|smote all the first- born of|
 B4 A2 F2 | E2 AA G2 AB | A6 x2 |] %10
w: point- ed to|stand in the house of our|God.|
w: pre- cious, your|prai- ses with grat- i- tude|bring.|
w: plea- sure in|heaven, on the earth, in the|sea.|
w: leas- es his|sov- ereign de- signs to ful-|fill.|
w: E- gypt, till|Pha- raoh gave in and o-|beyed.|
V:2
 C2 | C2 =B,C C2 EE | D4 D2 D2 | D2 DC | D2 EF | E6 E2 | E2 DE F2 E=E |1 F4 F2 D2 | C2 EE D2 CD | %9
 C6 x2 |] %10
V:3
 A,2 | A,2 A,A, E,2 A,A, | B,4 B,2 A,2 | G,2 B,A, | G,2 G,G, | A,6 A,2 | A,2 A,A, A,2 A,B, |1 %7
"^6 Great nations and kings that opposed him  were smitten by God's mighty hand. Their riches he gave to his people;  he made them inherit the land. 7 The name of the LORD stands forever,  through all generations renowned. The LORD brings relief to his people;  his mercies forever abound." A,4 A,2 A,2 | %8
 A,2 CC B,2 A,G,"^8 The idols of gold and of silver  can speak not nor listen nor see. Their makers shall also be helpless;  like them shall their worshipers be. 9 Praise God, every son, every daughter;  in worship your gladness proclaim. His servants, and all you who fear him,  sing praise to his glorious name." | %9
 E,6 x2 |] %10
V:4
 A,,2 | A,,2 A,,A,, A,,2 C,C, | E,4 E,2 E,2 | E,2 E,E, | E,2 E,E, | A,6 A,2 | A,2 A,A, A,2 A,,C, |1 %7
 D,4 D,2 D,2 | E,2 E,E, E,2 E,E, | A,,6 x2 |] %10

